icons-rebrand/svg/share-screen-small-filled.svg

<svg xmlns="http://www.w3.org/2000/svg" width="14" height="14" viewBox="0 0 14 14"><path d="M11 2.25H3C2.46974 2.25059 1.96137 2.46525 1.58642 2.84689C1.21148 3.22854 1.00058 3.74599 1 4.28571V9.61653C1.00055 10.1822 1.22157 10.7245 1.61454 11.1245C2.00752 11.5245 2.54035 11.7494 3.09609 11.75H10.9038C11.4595 11.7494 11.9923 11.5244 12.3853 11.1244C12.7783 10.7245 12.9993 10.1822 13 9.61653V4.28571C12.9994 3.74599 12.7885 3.22855 12.4136 2.84691C12.0386 2.46527 11.5303 2.2506 11 2.25ZM7.97998 6.60022V9.75C7.97998 10.3023 7.53226 10.75 6.97998 10.75C6.42769 10.75 5.97998 10.3023 5.97998 9.75V6.65002L5.58711 7.04289C5.19658 7.43342 4.56342 7.43342 4.17289 7.04289C3.78237 6.65237 3.78237 6.0192 4.17289 5.62868L6.17447 3.6271C6.20747 3.58002 6.245 3.53515 6.28706 3.49309C6.67758 3.10256 7.31075 3.10256 7.70127 3.49309L9.82259 5.61441C10.2131 6.00493 10.2131 6.6381 9.82259 7.02862C9.43207 7.41915 8.7989 7.41915 8.40838 7.02862L7.97998 6.60022Z"/></svg>

<svg data-name="Layer 1" xmlns="http://www.w3.org/2000/svg" viewBox="0 0 14 14"><path d="M12.414 2.846A1.985 1.985 0 0 0 11 2.25H3a1.982 1.982 0 0 0-1.414.6A2.058 2.058 0 0 0 1 4.286v5.33a2.151 2.151 0 0 0 .615 1.508 2.08 2.08 0 0 0 1.485.626h7.8a2.08 2.08 0 0 0 1.481-.626A2.156 2.156 0 0 0 13 9.617V4.286a2.058 2.058 0 0 0-.586-1.44ZM9.823 7.029a1 1 0 0 1-1.415 0L7.98 6.6v3.15a1 1 0 0 1-2 0v-3.1l-.393.393a1 1 0 0 1-1.439-1.389l.025-.025 2-2a1 1 0 0 1 1.394-.249 1.04 1.04 0 0 1 .134.113l2.122 2.121a1 1 0 0 1 0 1.415Z" style="fill:#0f0f0f;fill-rule:evenodd"/></svg>
